icons/svg/auto-upload.svg

﻿<?xml version="1.0" encoding="utf-8"?>
<!DOCTYPE svg PUBLIC "-//W3C//DTD SVG 1.1//EN" "http://www.w3.org/Graphics/SVG/1.1/DTD/svg11.dtd">
<svg xmlns="http://www.w3.org/2000/svg" xmlns:xlink="http://www.w3.org/1999/xlink" version="1.1" baseProfile="full" width="24" height="24" viewBox="0 0 24.00 24.00" enable-background="new 0 0 24.00 24.00" xml:space="preserve">
	<path fill="#000000" fill-opacity="1" stroke-width="0.2" stroke-linejoin="round" d="M 5.3494,12.648L 6.49939,8.99796L 7.64938,12.648M 5.49939,6.99796L 2.29938,15.998L 4.1994,15.998L 4.89938,13.998L 8.0994,13.998L 8.79938,15.998L 10.6994,15.998L 7.49939,6.99796M 10.9994,19.998L 21.9994,19.998L 21.9994,17.998L 10.9994,17.998M 13.9994,15.998L 18.9994,15.998L 18.9994,10.998L 21.9994,10.998L 16.4994,5.49796L 10.9994,10.998L 13.9994,10.998L 13.9994,15.998 Z "/>
</svg>

<svg xmlns="http://www.w3.org/2000/svg" version="1.1" baseProfile="full" width="24" height="24" viewBox="0 0 24.00 24.00" xml:space="preserve"><path fill="#000" fill-opacity="1" stroke-width=".2" stroke-linejoin="round" d="M5.35 12.648l1.15-3.65 1.15 3.65M5.5 6.998l-3.2 9h1.9l.7-2h3.2l.7 2h1.9l-3.2-9m3.5 13h11v-2H11m3-2h5v-5h3l-5.5-5.5-5.5 5.5h3v5z"/></svg>
